; generated by Slic3r Prusa Edition 1.41.0+win64 on 2019-07-03 at 17:39:46

; 

; external perimeters extrusion width = 0.60mm
; perimeters extrusion width = 0.43mm
; infill extrusion width = 0.45mm
; solid infill extrusion width = 0.70mm
; top infill extrusion width = 0.43mm
; first layer extrusion width = 0.42mm

M201 X9000 Y9000 Z500 E10000 ; sets maximum accelerations, mm/sec^2
M203 X500 Y500 Z12 E120 ; sets maximum feedrates, mm/sec
M204 P2000 R1500 T2000 ; sets acceleration (P, T) and retract acceleration (R), mm/sec^2
M205 X10.00 Y10.00 Z0.20 E2.50 ; sets the jerk limits, mm/sec
M205 S0 T0 ; sets the minimum extruding and travel feed rate, mm/sec
M107
M115 U3.1.0 ; tell printer latest fw version
M83  ; extruder relative mode
M204 S2000 T1500 ; MK2 firmware only supports the old M204 format
M104 S215 ; set extruder temp
M140 S60 ; set bed temp
M190 S60 ; wait for bed temp
M109 S215 ; wait for extruder temp
G28 W ; home all without mesh bed level
G80 ; mesh bed leveling
G1 Y-3.0 F1000.0 ; go outside print area
G92 E0.0
G1 X60.0 E9.0  F1000.0 ; intro line
G1 X100.0 E12.5  F1000.0 ; intro line
G92 E0.0
M900 K30; Filament gcode
G21 ; set units to millimeters
G90 ; use absolute coordinates
M83 ; use relative distances for extrusion
;BEFORE_LAYER_CHANGE
G92 E0.0
;0.2


G1 E-0.80000 F2100.00000
G1 Z0.600 F10800.000
;AFTER_LAYER_CHANGE
;0.2
G1 X91.827 Y76.998
G1 Z0.200
G1 E0.80000 F2100.00000
M204 S1000
G1 F1200
G1 X94.796 Y73.820 E0.13635
G1 X98.065 Y70.958 E0.13623
G1 X101.603 Y68.436 E0.13623
G1 X105.379 Y66.280 E0.13634
G1 X109.345 Y64.515 E0.13611
G1 X113.475 Y63.153 E0.13634
G1 X117.716 Y62.212 E0.13622
G1 X122.030 Y61.699 E0.13621
G1 X126.311 Y61.620 E0.13426
G1 X128.034 Y61.705 E0.05409
G1 X132.348 Y62.223 E0.13622
G1 X136.529 Y63.154 E0.13428
G1 X140.716 Y64.539 E0.13829
G1 X144.624 Y66.282 E0.13418
G1 X148.397 Y68.437 E0.13624
G1 X151.936 Y70.958 E0.13624
G1 X155.254 Y73.870 E0.13842
G1 X158.172 Y76.997 E0.13407
G1 X160.805 Y80.453 E0.13625
G1 X163.081 Y84.155 E0.13625
G1 X164.976 Y88.070 E0.13637
G1 X166.468 Y92.151 E0.13625
G1 X167.545 Y96.362 E0.13626
G1 X168.196 Y100.662 E0.13637
G1 X168.412 Y105.068 E0.13831
G1 X168.196 Y109.342 E0.13419
G1 X167.545 Y113.639 E0.13624
G1 X166.468 Y117.848 E0.13624
G1 X164.974 Y121.933 E0.13636
G1 X163.081 Y125.844 E0.13624
G1 X160.806 Y129.546 E0.13624
G1 X158.173 Y133.002 E0.13624
G1 X155.204 Y136.180 E0.13635
G1 X151.935 Y139.042 E0.13623
G1 X148.397 Y141.564 E0.13623
G1 X144.621 Y143.720 E0.13634
G1 X140.651 Y145.487 E0.13623
G1 X136.525 Y146.847 E0.13622
G1 X132.280 Y147.789 E0.13633
G1 X127.966 Y148.301 E0.13621
G1 X123.623 Y148.379 E0.13621
G1 X121.961 Y148.295 E0.05218
G1 X117.648 Y147.776 E0.13619
G1 X113.471 Y146.846 E0.13417
G1 X109.281 Y145.459 E0.13841
G1 X105.379 Y143.720 E0.13395
G1 X101.603 Y141.563 E0.13635
G1 X98.064 Y139.042 E0.13624
G1 X94.746 Y136.130 E0.13842
G1 X91.828 Y133.003 E0.13407
G1 X89.195 Y129.547 E0.13625
G1 X86.919 Y125.845 E0.13625
G1 X85.024 Y121.930 E0.13637
G1 X83.532 Y117.849 E0.13625
G1 X82.455 Y113.638 E0.13626
G1 X81.804 Y109.338 E0.13637
G1 X81.588 Y104.932 E0.13831
G1 X81.804 Y100.658 E0.13419
G1 X82.455 Y96.361 E0.13624
G1 X83.532 Y92.152 E0.13624
G1 X85.026 Y88.067 E0.13636
G1 X86.919 Y84.156 E0.13624
G1 X89.194 Y80.454 E0.13624
G1 X91.791 Y77.046 E0.13436
; PURGING FINISHED
G1 F8640
G1 X94.035 Y74.637 E-0.76000
G1 E-0.04000 F2100.00000
G1 Z0.800 F10800.000
G1 X107.349 Y86.743
G1 Z0.200
G1 E0.80000 F2100.00000
G1 F1200
G1 X108.134 Y85.754 E0.03960
G1 X110.753 Y83.745 E0.10351
G1 X113.577 Y82.103 E0.10241
G1 X116.587 Y80.834 E0.10241
G1 X119.734 Y79.959 E0.10241
G1 X122.967 Y79.493 E0.10241
G1 X126.233 Y79.441 E0.10241
G1 X129.479 Y79.807 E0.10241
G1 X132.652 Y80.583 E0.10241
G1 X135.700 Y81.756 E0.10241
G1 X138.574 Y83.309 E0.10241
G1 X141.227 Y85.215 E0.10241
G1 X143.615 Y87.443 E0.10241
G1 X145.700 Y89.957 E0.10241
G1 X147.447 Y92.717 E0.10241
G1 X148.829 Y95.677 E0.10241
G1 X149.823 Y98.788 E0.10241
G1 X149.858 Y98.982 E0.00618
G1 X150.412 Y102.001 E0.09623
G1 X150.587 Y105.263 E0.10241
G1 X150.345 Y108.520 E0.10241
G1 X149.690 Y111.720 E0.10241
G1 X148.633 Y114.811 E0.10241
G1 X147.190 Y117.741 E0.10241
G1 X145.387 Y120.464 E0.10241
G1 X143.250 Y122.936 E0.10242
G1 X140.817 Y125.114 E0.10241
G1 X138.126 Y126.965 E0.10242
G1 X135.221 Y128.459 E0.10241
G1 X132.149 Y129.569 E0.10241
G1 X131.956 Y129.612 E0.00618
G1 X128.961 Y130.280 E0.09623
G1 X125.708 Y130.578 E0.10241
G1 X122.444 Y130.460 E0.10241
G1 X119.221 Y129.927 E0.10241
G1 X116.093 Y128.988 E0.10242
G1 X113.109 Y127.658 E0.10241
G1 X110.320 Y125.958 E0.10241
G1 X107.770 Y123.918 E0.10241
G1 X105.500 Y121.568 E0.10242
G1 X103.527 Y118.921 E0.10351
G1 X103.041 Y117.756 E0.03960
G1 X103.000 Y116.458 E0.04071
G1 X103.422 Y115.230 E0.04071
G1 X104.252 Y114.232 E0.04071
G1 X105.383 Y113.593 E0.04071
G1 X106.586 Y113.410 E0.03816
G1 X108.656 Y113.284 E0.06501
G1 X110.590 Y112.803 E0.06249
G1 X112.404 Y111.978 E0.06249
G1 X114.038 Y110.837 E0.06249
G1 X115.437 Y109.418 E0.06249
G1 X116.555 Y107.768 E0.06249
G1 X117.353 Y105.942 E0.06249
G1 X117.807 Y104.001 E0.06249
G1 X117.899 Y102.010 E0.06249
G1 X117.628 Y100.036 E0.06249
G1 X117.003 Y98.143 E0.06249
G1 X116.044 Y96.396 E0.06249
G1 X114.782 Y94.853 E0.06249
G1 X113.262 Y93.565 E0.06249
G1 X111.532 Y92.575 E0.06249
G1 X109.575 Y91.890 E0.06501
G1 X108.467 Y91.386 E0.03816
G1 X107.553 Y90.464 E0.04071
G1 X107.026 Y89.277 E0.04071
G1 X106.955 Y87.980 E0.04071
G1 X107.330 Y86.800 E0.03883
G1 X107.687 Y86.923 F10800.000
G1 F1200
G1 X108.400 Y86.025 E0.03598
G1 X110.964 Y84.058 E0.10129
G1 X113.746 Y82.441 E0.10090
G1 X116.711 Y81.191 E0.10090
G1 X119.812 Y80.329 E0.10090
G1 X122.997 Y79.869 E0.10090
G1 X126.215 Y79.819 E0.10090
G1 X129.413 Y80.179 E0.10090
G1 X132.539 Y80.943 E0.10090
G1 X135.542 Y82.100 E0.10090
G1 X138.373 Y83.629 E0.10090
G1 X140.987 Y85.507 E0.10090
G1 X143.340 Y87.702 E0.10090
G1 X145.394 Y90.180 E0.10090
G1 X147.116 Y92.898 E0.10090
G1 X148.477 Y95.814 E0.10090
G1 X149.456 Y98.880 E0.10090
G1 X149.488 Y99.050 E0.00542
G1 X150.037 Y102.045 E0.09548
G1 X150.209 Y105.259 E0.10090
G1 X149.971 Y108.468 E0.10090
G1 X149.325 Y111.621 E0.10090
G1 X148.284 Y114.666 E0.10090
G1 X146.863 Y117.553 E0.10090
G1 X145.085 Y120.236 E0.10090
G1 X142.981 Y122.671 E0.10090
G1 X140.583 Y124.817 E0.10090
G1 X137.932 Y126.641 E0.10090
G1 X135.070 Y128.112 E0.10090
G1 X132.043 Y129.207 E0.10090
G1 X128.902 Y129.907 E0.10090
G1 X125.698 Y130.201 E0.10090
G1 X122.481 Y130.084 E0.10090
G1 X119.306 Y129.559 E0.10090
G1 X116.224 Y128.634 E0.10090
G1 X113.285 Y127.323 E0.10090
G1 X110.537 Y125.649 E0.10090
G1 X108.024 Y123.638 E0.10090
G1 X105.788 Y121.324 E0.10090
G1 X103.858 Y118.733 E0.10129
G1 X103.416 Y117.674 E0.03598
G1 X103.379 Y116.515 E0.03637
G1 X103.756 Y115.418 E0.03637
G1 X104.498 Y114.526 E0.03637
G1 X105.508 Y113.956 E0.03637
G1 X106.626 Y113.786 E0.03546
G1 X108.713 Y113.658 E0.06556
G1 X110.714 Y113.161 E0.06466
G1 X112.591 Y112.307 E0.06466
G1 X114.282 Y111.126 E0.06466
G1 X115.730 Y109.658 E0.06466
G1 X116.886 Y107.950 E0.06466
G1 X117.713 Y106.061 E0.06466
G1 X118.182 Y104.053 E0.06466
G1 X118.278 Y101.993 E0.06466
G1 X117.997 Y99.950 E0.06466
G1 X117.350 Y97.992 E0.06466
G1 X116.357 Y96.185 E0.06466
G1 X115.052 Y94.588 E0.06466
G1 X113.479 Y93.255 E0.06466
G1 X111.689 Y92.231 E0.06466
G1 X109.716 Y91.540 E0.06556
G1 X108.686 Y91.071 E0.03546
G1 X107.870 Y90.247 E0.03637
G1 X107.399 Y89.187 E0.03637
G1 X107.335 Y88.029 E0.03637
G1 X107.669 Y86.980 E0.03449
G1 X107.475 Y86.584 F10800.000
G1 F8640
G1 X108.400 Y86.025 E-0.27794
G1 X110.057 Y84.754 E-0.48206
G1 E-0.04000 F2100.00000
G1 Z0.800 F10800.000
G1 X106.662 Y98.419
G1 Z0.200
G1 E0.80000 F2100.00000
G1 F1200
G1 X108.005 Y98.530 E0.04227
G1 X109.240 Y99.072 E0.04227
G1 X110.232 Y99.985 E0.04227
G1 X110.873 Y101.170 E0.04227
G1 X111.095 Y102.500 E0.04227
G1 X110.873 Y103.830 E0.04227
G1 X110.232 Y105.015 E0.04227
G1 X109.240 Y105.928 E0.04227
G1 X108.005 Y106.470 E0.04227
G1 X106.662 Y106.581 E0.04227
G1 X105.355 Y106.250 E0.04227
G1 X104.226 Y105.513 E0.04227
G1 X103.398 Y104.449 E0.04227
G1 X102.961 Y103.174 E0.04227
G1 X102.961 Y101.826 E0.04227
G1 X103.398 Y100.551 E0.04227
G1 X104.226 Y99.487 E0.04227
G1 X105.355 Y98.750 E0.04227
G1 X106.604 Y98.434 E0.04039
G1 X106.693 Y98.800 F10800.000
G1 F1200
G1 X107.911 Y98.901 E0.03832
G1 X109.031 Y99.392 E0.03832
G1 X109.930 Y100.219 E0.03832
G1 X110.512 Y101.294 E0.03832
G1 X110.713 Y102.500 E0.03832
G1 X110.512 Y103.706 E0.03832
G1 X109.930 Y104.781 E0.03832
G1 X109.031 Y105.608 E0.03832
G1 X107.911 Y106.099 E0.03832
G1 X106.693 Y106.200 E0.03832
G1 X106.604 Y106.177 E0.00290
G1 X105.509 Y105.900 E0.03542
G1 X104.485 Y105.232 E0.03832
G1 X103.735 Y104.267 E0.03832
G1 X103.338 Y103.111 E0.03832
G1 X103.338 Y101.889 E0.03832
G1 X103.735 Y100.733 E0.03832
G1 X104.485 Y99.768 E0.03832
G1 X105.509 Y99.100 E0.03832
G1 X106.635 Y98.815 E0.03644
G1 X106.864 Y98.438 F10800.000
G1 F8640
G1 X107.911 Y98.901 E-0.29536
G1 X109.031 Y99.392 E-0.28222
G1 X109.612 Y99.927 E-0.18242
G1 E-0.04000 F2100.00000
G1 Z0.800 F10800.000
G1 X86.817 Y93.041
G1 Z0.200
G1 E0.80000 F2100.00000
G1 F1200
G1 X88.220 Y89.245 E0.12688
G1 X90.000 Y85.611 E0.12688
G1 X92.137 Y82.175 E0.12688
G1 X94.611 Y78.973 E0.12688
G1 X97.395 Y76.037 E0.12687
G1 X100.462 Y73.397 E0.12687
G1 X103.779 Y71.080 E0.12687
G1 X107.314 Y69.110 E0.12687
G1 X111.029 Y67.508 E0.12687
G1 X114.888 Y66.288 E0.12687
G1 X118.850 Y65.465 E0.12687
G1 X122.873 Y65.047 E0.12685
G1 X127.127 Y65.047 E0.13335
G1 X131.150 Y65.465 E0.12685
G1 X135.112 Y66.288 E0.12687
G1 X138.971 Y67.508 E0.12687
G1 X142.686 Y69.110 E0.12687
G1 X146.221 Y71.080 E0.12687
G1 X149.538 Y73.397 E0.12687
G1 X152.605 Y76.037 E0.12687
G1 X155.389 Y78.973 E0.12687
G1 X157.863 Y82.175 E0.12688
G1 X160.000 Y85.611 E0.12688
G1 X161.780 Y89.245 E0.12688
G1 X163.183 Y93.041 E0.12688
G1 X164.196 Y96.959 E0.12688
G1 X164.808 Y100.959 E0.12688
G1 X165.012 Y105.000 E0.12688
G1 X164.808 Y109.041 E0.12688
G1 X164.196 Y113.041 E0.12688
G1 X163.183 Y116.959 E0.12688
G1 X161.780 Y120.755 E0.12688
G1 X160.000 Y124.389 E0.12688
G1 X157.863 Y127.825 E0.12688
G1 X155.389 Y131.027 E0.12687
G1 X152.605 Y133.963 E0.12687
G1 X149.538 Y136.603 E0.12687
G1 X146.221 Y138.920 E0.12687
G1 X142.686 Y140.890 E0.12687
G1 X138.971 Y142.492 E0.12687
G1 X135.112 Y143.712 E0.12687
G1 X131.150 Y144.535 E0.12687
G1 X127.127 Y144.953 E0.12685
G1 X122.873 Y144.953 E0.13335
G1 X118.850 Y144.535 E0.12685
G1 X114.888 Y143.712 E0.12687
G1 X111.029 Y142.492 E0.12687
G1 X107.314 Y140.890 E0.12687
G1 X103.779 Y138.920 E0.12687
G1 X100.462 Y136.603 E0.12687
G1 X97.395 Y133.963 E0.12687
G1 X94.611 Y131.027 E0.12687
G1 X92.137 Y127.825 E0.12687
G1 X90.000 Y124.389 E0.12688
G1 X88.220 Y120.755 E0.12688
G1 X86.817 Y116.959 E0.12688
G1 X85.804 Y113.041 E0.12688
G1 X85.192 Y109.041 E0.12688
G1 X84.988 Y105.000 E0.12688
G1 X85.192 Y100.959 E0.12688
G1 X85.804 Y96.959 E0.12688
G1 X86.802 Y93.099 E0.12499
G1 X86.437 Y93.005 F10800.000
G1 F1200
G1 X87.873 Y89.097 E0.13054
G1 X89.669 Y85.428 E0.12807
G1 X91.827 Y81.960 E0.12807
G1 X94.324 Y78.727 E0.12807
G1 X97.134 Y75.763 E0.12807
G1 X100.230 Y73.098 E0.12807
G1 X103.579 Y70.760 E0.12807
G1 X107.147 Y68.772 E0.12807
G1 X110.898 Y67.154 E0.12807
G1 X114.792 Y65.923 E0.12807
G1 X118.792 Y65.092 E0.12807
G1 X122.854 Y64.670 E0.12806
G1 X127.146 Y64.670 E0.13458
G1 X131.208 Y65.092 E0.12806
G1 X135.208 Y65.923 E0.12807
G1 X139.102 Y67.154 E0.12807
G1 X142.853 Y68.772 E0.12807
G1 X146.421 Y70.760 E0.12807
G1 X149.770 Y73.098 E0.12807
G1 X152.866 Y75.763 E0.12807
G1 X155.676 Y78.727 E0.12807
G1 X158.173 Y81.960 E0.12807
G1 X160.331 Y85.428 E0.12807
G1 X162.127 Y89.097 E0.12807
G1 X163.543 Y92.928 E0.12807
G1 X164.566 Y96.883 E0.12807
G1 X165.183 Y100.921 E0.12807
G1 X165.390 Y105.000 E0.12807
G1 X165.183 Y109.080 E0.12807
G1 X164.566 Y113.117 E0.12807
G1 X163.543 Y117.072 E0.12807
G1 X162.127 Y120.903 E0.12807
G1 X160.331 Y124.572 E0.12807
G1 X158.173 Y128.040 E0.12807
G1 X155.676 Y131.273 E0.12807
G1 X152.866 Y134.237 E0.12807
G1 X149.770 Y136.902 E0.12807
G1 X146.421 Y139.240 E0.12807
G1 X142.853 Y141.228 E0.12807
G1 X139.102 Y142.846 E0.12807
G1 X135.208 Y144.077 E0.12807
G1 X131.208 Y144.908 E0.12807
G1 X127.146 Y145.330 E0.12806
G1 X122.854 Y145.330 E0.13458
G1 X118.792 Y144.908 E0.12806
G1 X114.792 Y144.077 E0.12807
G1 X110.898 Y142.846 E0.12807
G1 X107.147 Y141.228 E0.12807
G1 X103.579 Y139.240 E0.12807
G1 X100.230 Y136.902 E0.12807
G1 X97.134 Y134.237 E0.12807
G1 X94.324 Y131.273 E0.12807
G1 X91.827 Y128.040 E0.12807
G1 X89.669 Y124.572 E0.12807
G1 X87.873 Y120.903 E0.12807
G1 X86.457 Y117.072 E0.12807
G1 X85.434 Y113.117 E0.12807
G1 X84.817 Y109.080 E0.12807
G1 X84.610 Y105.000 E0.12807
G1 X84.817 Y100.921 E0.12807
G1 X85.434 Y96.883 E0.12807
G1 X86.422 Y93.063 E0.12371
G1 X86.827 Y92.917 F10800.000
G1 F8640
G1 X87.553 Y89.972 E-0.76000
G1 E-0.04000 F2100.00000
G1 Z0.800 F10800.000
G1 X103.124 Y104.521
G1 Z0.200
G1 E0.80000 F2100.00000
G1 F1200
G1 X88.340 Y89.737 E0.65760
G1 X88.485 Y89.347 E0.01308
G1 X102.845 Y103.707 E0.63870
G1 X102.678 Y103.221 E0.01615
G1 X102.678 Y103.005 E0.00680
G1 X88.661 Y88.988 E0.62346
G1 X88.837 Y88.629 E0.01258
G1 X102.678 Y102.470 E0.61564
G1 X102.678 Y101.935 E0.01682
G1 X89.013 Y88.270 E0.60782
G1 X89.188 Y87.911 E0.01258
G1 X102.775 Y101.497 E0.60430
G1 X102.911 Y101.099 E0.01324
G1 X89.364 Y87.552 E0.60256
G1 X89.540 Y87.193 E0.01258
G1 X103.048 Y100.701 E0.60082
G1 X103.146 Y100.414 E0.00952
G1 X103.212 Y100.330 E0.00337
G1 X89.716 Y86.834 E0.60030
G1 X89.892 Y86.475 E0.01258
G1 X103.446 Y100.029 E0.60290
G1 X103.680 Y99.728 E0.01199
G1 X90.068 Y86.115 E0.60549
G1 X90.243 Y85.756 E0.01258
G1 X103.914 Y99.427 E0.60808
G1 X104.032 Y99.276 E0.00603
G1 X104.193 Y99.171 E0.00604
G1 X90.448 Y85.426 E0.61138
G1 X90.653 Y85.096 E0.01222
G1 X104.517 Y98.960 E0.61664
G1 X104.840 Y98.748 E0.01216
G1 X90.858 Y84.766 E0.62191
G1 X91.063 Y84.437 E0.01222
G1 X105.164 Y98.537 E0.62718
G1 X105.240 Y98.487 E0.00286
G1 X105.566 Y98.405 E0.01059
G1 X91.269 Y84.107 E0.63596
G1 X91.474 Y83.777 E0.01222
G1 X105.993 Y98.296 E0.64582
G1 X106.420 Y98.188 E0.01385
G1 X91.679 Y83.447 E0.65568
G1 X91.884 Y83.117 E0.01222
G1 X106.923 Y98.157 E0.66894
G1 X107.506 Y98.205 E0.01841
G1 X92.089 Y82.788 E0.68576
G1 X92.294 Y82.458 E0.01222
G1 X108.099 Y98.262 E0.70297
G1 X109.052 Y98.680 E0.03273
G1 X92.517 Y82.146 E0.73544
G1 X92.750 Y81.844 E0.01199
G1 X116.985 Y106.079 E1.07795
G1 X117.084 Y105.852 E0.00778
G1 X117.124 Y105.682 E0.00548
G1 X92.983 Y81.542 E1.07375
G1 X93.216 Y81.240 E0.01199
G1 X117.225 Y105.249 E1.06788
G1 X117.326 Y104.815 E0.01401
G1 X93.450 Y80.939 E1.06202
G1 X93.683 Y80.637 E0.01199
G1 X117.427 Y104.381 E1.05616
G1 X117.526 Y103.945 E0.01406
G1 X93.916 Y80.335 E1.05018
G1 X94.149 Y80.033 E0.01199
G1 X117.550 Y103.434 E1.04087
G1 X117.574 Y102.923 E0.01609
G1 X94.382 Y79.731 E1.03156
G1 X94.615 Y79.429 E0.01199
G1 X117.598 Y102.412 E1.02225
G1 X117.616 Y102.023 E0.01225
G1 X117.595 Y101.875 E0.00470
G1 X94.851 Y79.130 E1.01167
G1 X95.111 Y78.856 E0.01190
G1 X117.510 Y101.255 E0.99630
G1 X117.425 Y100.635 E0.01968
G1 X95.372 Y78.581 E0.98094
G1 X95.632 Y78.307 E0.01190
G1 X106.808 Y89.483 E0.49711
G1 X106.747 Y89.344 E0.00477
G1 X106.720 Y88.860 E0.01526
G1 X95.892 Y78.032 E0.48161
G1 X96.153 Y77.757 E0.01190
G1 X106.689 Y88.294 E0.46864
G1 X106.670 Y87.944 E0.01101
G1 X106.719 Y87.789 E0.00512
G1 X96.413 Y77.483 E0.45841
G1 X96.673 Y77.208 E0.01190
G1 X106.848 Y87.383 E0.45257
G1 X106.977 Y86.977 E0.01339
G1 X96.934 Y76.934 E0.44673
G1 X97.194 Y76.659 E0.01190
G1 X107.116 Y86.581 E0.44132
G1 X107.353 Y86.283 E0.01197
G1 X97.455 Y76.385 E0.44027
G1 X97.728 Y76.123 E0.01190
G1 X107.590 Y85.985 E0.43864
G1 X107.826 Y85.687 E0.01197
G1 X98.015 Y75.876 E0.43639
G1 X98.303 Y75.628 E0.01193
G1 X108.099 Y85.424 E0.43573
G1 X108.402 Y85.192 E0.01200
G1 X98.590 Y75.381 E0.43641
G1 X98.878 Y75.133 E0.01193
G1 X108.704 Y84.960 E0.43709
G1 X109.007 Y84.728 E0.01200
